src/assets/signOut.svg

<svg width="current" height="current" viewBox="0 0 24 24" fill="none" xmlns="http://www.w3.org/2000/svg">
<path d="M8.2075 -1.88703e-05L8.3597 -1.8857e-05C13.5581 -1.84025e-05 16.0637 2.04477 16.4969 6.6251C16.5437 7.10417 16.1924 7.53649 15.7007 7.58323C15.2324 7.62997 14.7875 7.26775 14.7406 6.78869C14.4011 3.11975 12.6683 1.75266 8.34799 1.75266L8.19579 1.75266C3.43057 1.75266 1.7446 3.43523 1.7446 8.19083L1.7446 15.8092C1.7446 20.5648 3.43057 22.2473 8.19579 22.2473L8.34799 22.2473C12.6917 22.2473 14.4245 20.8569 14.7406 17.1178C14.7992 16.6388 15.209 16.2765 15.7007 16.3233C16.1924 16.3583 16.5437 16.7907 16.5086 17.2697C16.1105 21.9202 13.5932 24 8.3597 24L8.20749 24C2.4588 24 8.5741e-05 21.5463 8.62425e-05 15.8092L8.69086e-05 8.19083C8.74101e-05 2.45373 2.4588 -1.93728e-05 8.2075 -1.88703e-05Z" fill="#132743"/>
<path d="M8.48996 11.1238L21.8138 11.1238C22.2938 11.1238 22.6919 11.5211 22.6919 12.0001C22.6919 12.4792 22.2938 12.8765 21.8138 12.8765L8.48996 12.8765C8.00993 12.8765 7.61185 12.4792 7.61185 12.0001C7.61185 11.5211 8.00993 11.1238 8.48996 11.1238Z" fill="#132743"/>
<path d="M19.2026 7.2092C19.425 7.2092 19.6475 7.29099 19.8231 7.46626L23.7453 11.3806C24.0849 11.7194 24.0849 12.2803 23.7453 12.6191L19.8231 16.5335C19.4836 16.8723 18.9216 16.8723 18.5821 16.5335C18.2425 16.1946 18.2425 15.6338 18.5821 15.2949L21.8838 11.9999L18.5821 8.70482C18.2425 8.36597 18.2425 7.80511 18.5821 7.46626C18.746 7.29099 18.9801 7.2092 19.2026 7.2092Z" fill="#132743"/>
</svg>

<svg xmlns="http://www.w3.org/2000/svg" width="current" height="current" fill="none" viewBox="0 0 24 24"><path fill="#132743" d="M8.208 0h.152c5.198 0 7.704 2.045 8.137 6.625a.88.88 0 0 1-.796.958.895.895 0 0 1-.96-.794c-.34-3.67-2.073-5.036-6.393-5.036h-.152c-4.765 0-6.451 1.682-6.451 6.438v7.618c0 4.756 1.686 6.438 6.45 6.438h.153c4.344 0 6.076-1.39 6.393-5.13a.89.89 0 0 1 .96-.794.88.88 0 0 1 .808.947C16.11 21.92 13.593 24 8.359 24h-.152C2.46 24 0 21.546 0 15.81V8.19C0 2.455 2.46 0 8.208 0"/><path fill="#132743" d="M8.49 11.124h13.324c.48 0 .878.397.878.876 0 .48-.398.877-.878.877H8.49A.884.884 0 0 1 7.612 12c0-.479.398-.876.878-.876"/><path fill="#132743" d="M19.203 7.21a.87.87 0 0 1 .62.256l3.922 3.915c.34.338.34.9 0 1.238l-3.922 3.915a.885.885 0 0 1-1.24 0 .88.88 0 0 1 0-1.24l3.3-3.294-3.3-3.295a.88.88 0 0 1 0-1.239.85.85 0 0 1 .62-.257"/></svg>
